X:1
T: Betty's Apron
C:
R:Strathspey
Q:128
K:Am
M:4/4
L:1/16
|:A,6B,2 CC3 C3D|E3A c3B A6E2|A,6B,2 CC3 C3E|F3D E3C B,6E2|
A,6B,2 CC3 C3D|E3A c3B A6c2|d3e f3d e3c A3c|((3d2c2B2) ((3c2B2A2) ^GB3 B3e|
ea3 a3g ea3 a3g|((3e2d2c2) ((3d2c2B2) A6e2|ea3 a3g ea3 a3g|((3d2c2B2) ((3c2B2A2) G6f2|
ea3 a3g ea3 a3g|((3e2d2c2) ((3d2c2B2) A6c2|d3e f3d c3d e3a|e3d c3B A8:|
